(
Routine.run {
	"initialization1.scd".loadRelative;
	s.sync;
	"initialization2.scd".loadRelative;
	s.sync;
	"busses.scd".loadRelative;
	s.sync;
	"synthDefs.scd".loadRelative;
	s.sync;
	"synths.scd".loadRelative;
	s.sync;
	"objects.scd".loadRelative;
	s.sync;
	"vstControllers.scd".loadRelative;
	s.sync;
	"physicalInterfaces.scd".loadRelative;
}
)